packages/core/src/svgs/tokens/branded/CCV2.svg

<svg width="24" height="24" viewBox="0 0 24 24" fill="none" xmlns="http://www.w3.org/2000/svg">
<path d="M10.8232 2.5882C10.8232 2.74113 10.8115 3.68231 10.8232 3.90584C10.8761 4.7176 11.5879 5.47642 12.3879 5.70583C13.7055 6.08231 14.7349 6.83525 15.2761 8.11761V8.12937C15.8938 9.68231 16.9703 11.1881 18.4703 11.9764V13.4647C18.4703 14.1706 17.8291 14.747 17.2173 14.9411H15.9174C15.0468 13.6823 13.4056 13.0294 11.9526 12.847C11.2153 14.1796 10.8269 15.6769 10.8232 17.1999C10.8232 19.1411 11.435 20.5529 12.588 22H11.7761C9.35264 22 6.96441 20.6 5.41146 18.5705C4.35148 17.2145 3.77212 15.5446 3.7644 13.8234C3.7644 9.02936 7.11146 6.58819 9.11735 5.82349C9.08204 5.57643 9.05852 5.34702 9.05852 5.12936C9.04675 4.67642 9.18794 4.30583 9.37029 3.99407C9.59381 3.62937 10.4468 2.86465 10.8232 2.5882ZM9.2997 6.64113C7.88966 7.22856 6.69049 8.2291 5.85997 9.5111C5.02944 10.7931 4.60649 12.2965 4.64676 13.8234C4.64676 15.0587 4.92322 16.2058 5.49382 17.2058C5.82754 15.6919 6.70436 14.3526 7.95852 13.4412C8.6644 12.9117 9.43499 12.5588 10.1468 12.3235C9.67264 12.0452 9.27268 11.6565 8.98082 11.1905C8.68897 10.7245 8.51384 10.1951 8.47028 9.64701H9.35264C9.39969 10.9882 10.5761 11.8706 11.8291 12C14.4232 12.2705 15.8173 13.4588 16.3291 14.0588H17.082C17.2997 13.9765 17.5879 13.7411 17.5879 13.4647V12.4646C16.7644 11.947 15.3821 10.6235 14.5174 8.44113C14.0703 7.3823 13.2409 6.81172 12.1644 6.49996C11.6671 6.3614 11.2135 6.09783 10.847 5.73435C10.4804 5.37087 10.2131 4.91958 10.0703 4.42349C9.85854 4.77642 9.81735 5.27054 9.97616 6.01172C10.0202 6.21192 10.0792 6.40855 10.1527 6.59995L9.38793 6.89407C9.35649 6.81049 9.32706 6.72614 9.2997 6.64113ZM10.9585 12.9587C10.182 13.1352 9.27029 13.4881 8.44087 14.1C7.78752 14.5772 7.24523 15.1904 6.85125 15.897C6.45728 16.6037 6.22095 17.3874 6.15851 18.194C7.35362 19.6903 9.04678 20.707 10.9291 21.0588C10.3408 20.1175 9.94089 18.9118 9.94089 17.2058C9.94089 15.7528 10.3349 14.2647 10.9585 12.9587Z" fill="#FFFDFE"/>
<path d="M20.2355 2L13.7649 6.05883C14.327 6.35485 14.8124 6.7778 15.1826 7.29413L20.2355 2Z" fill="#FFFDFE"/>
<path d="M15.5294 22C15.8543 22 16.1177 21.7366 16.1177 21.4117C16.1177 21.0868 15.8543 20.8234 15.5294 20.8234C15.2046 20.8234 14.9412 21.0868 14.9412 21.4117C14.9412 21.7366 15.2046 22 15.5294 22Z" fill="#FFFDFE"/>
<path d="M17.2942 22C17.6191 22 17.8825 21.7366 17.8825 21.4117C17.8825 21.0868 17.6191 20.8234 17.2942 20.8234C16.9693 20.8234 16.7061 21.0868 16.7061 21.4117C16.7061 21.7366 16.9693 22 17.2942 22Z" fill="#FFFDFE"/>
<path d="M12.353 16.4117H11.4119V15.5294H12.1824C12.6354 15.5294 13.0355 15.794 13.2002 16.1941L14.5178 19.3529H18.2472L18.6589 18.4705H14.9412V17.5882H18.9824L19.3296 16.7058C19.3883 16.5647 19.2707 16.4117 19.1119 16.4117H14.3531V15.5294H19.1648C19.9178 15.5294 20.4295 16.2529 20.1649 16.9235L19.7413 17.9823L19.0589 19.6471C18.9119 19.9999 18.5531 20.2353 18.1589 20.2353H14.6177C14.206 20.2353 13.8413 19.9999 13.6943 19.6294C13.2472 18.5294 12.8001 17.5118 12.353 16.4117Z" fill="#FFFDFE"/>
</svg>

<svg xmlns="http://www.w3.org/2000/svg" width="24" height="24" fill="none" viewBox="0 0 24 24">
    <path fill="#FFFDFE" d="M10.823 2.588c0 .153-.011 1.094 0 1.318.053.812.765 1.57 1.565 1.8 1.318.376 2.347 1.13 2.888 2.412v.011c.618 1.553 1.694 3.06 3.194 3.847v1.489c0 .706-.64 1.282-1.253 1.476h-1.3c-.87-1.259-2.511-1.912-3.964-2.094a9.04 9.04 0 0 0-1.13 4.353c0 1.941.612 3.353 1.765 4.8h-.812c-2.423 0-4.812-1.4-6.365-3.43a7.77 7.77 0 0 1-1.647-4.747c0-4.794 3.347-7.235 5.353-8a5 5 0 0 1-.058-.694 2.1 2.1 0 0 1 .311-1.135c.224-.365 1.077-1.13 1.453-1.406M9.3 6.641a7.565 7.565 0 0 0-4.653 7.182c0 1.236.276 2.383.847 3.383a6.34 6.34 0 0 1 2.465-3.765 7.6 7.6 0 0 1 2.188-1.118A3.42 3.42 0 0 1 8.47 9.647h.883c.047 1.341 1.223 2.224 2.476 2.353 2.594.27 3.988 1.459 4.5 2.059h.753c.218-.082.506-.318.506-.594v-1c-.824-.518-2.206-1.841-3.07-4.024-.448-1.059-1.277-1.63-2.354-1.941a3.02 3.02 0 0 1-2.094-2.077c-.211.353-.253.848-.094 1.589q.066.3.177.588l-.765.294a6 6 0 0 1-.088-.253m1.659 6.318A6.8 6.8 0 0 0 8.44 14.1a5.6 5.6 0 0 0-2.282 4.094 7.98 7.98 0 0 0 4.77 2.865c-.588-.942-.988-2.147-.988-3.853 0-1.453.394-2.941 1.018-4.247"/>
    <path fill="#FFFDFE" d="m20.236 2-6.471 4.059a4.1 4.1 0 0 1 1.418 1.235zM15.53 22a.588.588 0 1 0 0-1.177.588.588 0 0 0 0 1.177m1.764 0a.588.588 0 1 0 0-1.177.588.588 0 0 0 0 1.177m-4.941-5.588h-.941v-.883h.77c.453 0 .854.265 1.018.665l1.318 3.159h3.73l.41-.883h-3.717v-.882h4.041l.348-.882c.058-.141-.06-.294-.218-.294h-4.759v-.883h4.812c.753 0 1.265.724 1 1.395l-.424 1.058-.682 1.665a.98.98 0 0 1-.9.588h-3.541a.98.98 0 0 1-.924-.606c-.447-1.1-.894-2.117-1.341-3.217"/>
</svg>
